X:632
T:Miss Forsyth Huntly
R:Reel
C:William Marshall
B:The Athole Collection
M:C|
L:1/8
K:A Minor
E<A A>B c2ce|GABc dBGB|E<A A>B c2 ce|E<E E>^G A2A2:|
cde^f gage|GABc dBGB|cde^f gage|dB A2 AB|cde^f gage|
GABc dBGB|cedB cABG|E<E E>^G A2A2||
